img/icon/time.svg

<svg xmlns="http://www.w3.org/2000/svg" preserveAspectRatio="xMidYMid" width="27" height="32" viewBox="0 0 27 32"><defs><style>.cls-1{fill:#fff;fill-rule:evenodd}</style></defs><path d="M27 18.839C27 26.054 20.901 32 13.5 32S0 26.121 0 18.839c0-6.213 4.523-11.49 10.553-12.827V4.61H8.429V0H18.64v4.61h-2.125v1.402c.96.201 1.851.535 2.741.936l2.742-3.407 4.728 3.54-2.741 3.474A12.86 12.86 0 0 1 27 18.839zM17.269 3.273V1.336H9.8v1.937H17.269zM11.855 4.61v1.202h.343c.411-.067.822-.067 1.234-.067.411 0 .822 0 1.233.067H15.076V4.61h-3.221zm4.112 2.672c-.206-.067-.48-.134-.685-.134-.206 0-.412-.067-.617-.067-.274-.067-.617-.067-.891-.067h-.48c-.274 0-.616.067-.89.067-.206 0-.412.067-.617.067-.206.067-.48.067-.686.134-5.55 1.135-9.73 5.879-9.73 11.624 0 6.48 5.413 11.825 12.129 11.825 6.716 0 12.129-5.345 12.198-11.825 0-5.745-4.18-10.488-9.731-11.624zm8.84.067l-2.604-1.938-1.713 2.205c.479.267.959.534 1.37.868.412.334.823.668 1.234 1.069l1.713-2.204zM13.5 28.392c-5.345 0-9.731-4.275-9.731-9.486S8.155 9.42 13.5 9.42s9.731 4.208 9.731 9.486c0 5.211-4.386 9.486-9.731 9.486zm0-17.703c-4.591 0-8.36 3.674-8.36 8.15 0 4.476 3.769 8.15 8.36 8.15 4.591 0 8.36-3.674 8.36-8.15 0-4.476-3.769-8.15-8.36-8.15zm-.685 2.071h1.37v6.146h-1.37V12.76z" class="cls-1"/></svg>

<svg xmlns="http://www.w3.org/2000/svg" xmlns:xlink="http://www.w3.org/1999/xlink" preserveAspectRatio="xMidYMid" width="27" height="32" viewBox="0 0 27 32">
  <defs>
    <style>
      .cls-1 {
        fill: #fff;
        fill-rule: evenodd;
      }
    </style>
  </defs>
  <path d="M27.000,18.839 C27.000,26.054 20.901,32.000 13.500,32.000 C6.099,32.000 -0.000,26.121 -0.000,18.839 C-0.000,12.626 4.523,7.349 10.553,6.012 L10.553,4.610 L8.429,4.610 L8.429,-0.000 L18.640,-0.000 L18.640,4.610 L16.515,4.610 L16.515,6.012 C17.475,6.213 18.366,6.547 19.256,6.948 L21.998,3.541 L26.726,7.081 L23.985,10.555 C25.904,12.827 27.000,15.766 27.000,18.839 ZM17.269,3.273 L17.269,1.336 L9.800,1.336 L9.800,3.273 L10.553,3.273 L16.515,3.273 L17.269,3.273 ZM11.855,4.610 L11.855,5.812 C11.883,5.812 11.905,5.812 11.924,5.812 C11.928,5.812 11.936,5.812 11.941,5.812 C12.013,5.812 12.134,5.812 12.198,5.812 C12.609,5.745 13.020,5.745 13.432,5.745 C13.843,5.745 14.254,5.745 14.665,5.812 C14.734,5.812 14.871,5.812 14.939,5.812 C15.008,5.812 15.008,5.812 15.076,5.812 L15.076,4.610 L11.855,4.610 ZM15.967,7.282 C15.761,7.215 15.487,7.148 15.282,7.148 C15.076,7.148 14.870,7.081 14.665,7.081 C14.391,7.014 14.048,7.014 13.774,7.014 C13.637,7.014 13.431,7.014 13.294,7.014 C13.020,7.014 12.678,7.081 12.404,7.081 C12.198,7.081 11.992,7.148 11.787,7.148 C11.581,7.215 11.307,7.215 11.101,7.282 C5.551,8.417 1.371,13.161 1.371,18.906 C1.371,25.386 6.784,30.731 13.500,30.731 C20.216,30.731 25.629,25.386 25.698,18.906 C25.698,13.161 21.518,8.418 15.967,7.282 ZM24.807,7.349 L22.203,5.411 L20.490,7.616 C20.969,7.883 21.449,8.150 21.860,8.484 C22.272,8.818 22.683,9.152 23.094,9.553 L24.807,7.349 ZM13.500,28.392 C8.155,28.392 3.769,24.117 3.769,18.906 C3.769,13.695 8.155,9.420 13.500,9.420 C18.845,9.420 23.231,13.628 23.231,18.906 C23.231,24.117 18.845,28.392 13.500,28.392 ZM13.500,10.689 C8.909,10.689 5.140,14.363 5.140,18.839 C5.140,23.315 8.909,26.989 13.500,26.989 C18.091,26.989 21.860,23.315 21.860,18.839 C21.860,14.363 18.091,10.689 13.500,10.689 ZM12.815,12.760 L14.185,12.760 L14.185,18.906 L12.815,18.906 L12.815,12.760 Z" class="cls-1"/>
</svg>
